X: 6579
T: Catriona's
R: jig
M: 6/8
K: Gmajor
|:GAG EDB,|G,B,D GBd|ege dBG|ABG E2F|
GAG EDB,|G,B,D GBd|ege dBG|AGF G3:|
|:ege dBG|cBc dBG|E2G DBd|edB ABd|
ege dBG|cBc dBG|E2G DGB|AGF G3:|

